packages/foundations/assets/icons/functional/images/layout/list_16.svg

<svg width="16" height="16" viewBox="0 0 16 16" fill="none" xmlns="http://www.w3.org/2000/svg">
<g clip-path="url(#clip0_185_1366)">
<path fill-rule="evenodd" clip-rule="evenodd" d="M7.21124 12.8H12.815C13.2337 12.8 13.6 12.4328 13.6 11.9869C13.6 11.5672 13.2337 11.2 12.815 11.2H7.21124C6.76637 11.2 6.40002 11.5672 6.40002 11.9869C6.40002 12.4328 6.76637 12.8 7.21124 12.8ZM3.21761 12.8H4.00882C4.43081 12.8 4.80002 12.4328 4.80002 11.9869C4.80002 11.5672 4.43081 11.2 4.00882 11.2H3.21761C2.76924 11.2 2.40002 11.5672 2.40002 11.9869C2.40002 12.4328 2.76924 12.8 3.21761 12.8ZM7.21124 8.8H12.815C13.2337 8.8 13.6 8.43872 13.6 8C13.6 7.56127 13.2337 7.2 12.815 7.2H7.21124C6.76637 7.2 6.40002 7.56127 6.40002 8C6.40002 8.43872 6.76637 8.8 7.21124 8.8ZM3.21761 8.8H4.00882C4.43081 8.8 4.80002 8.43872 4.80002 8C4.80002 7.56127 4.43081 7.2 4.00882 7.2H3.21761C2.76924 7.2 2.40002 7.56127 2.40002 8C2.40002 8.43872 2.76924 8.8 3.21761 8.8ZM7.21124 4.8H12.815C13.2337 4.8 13.6 4.4328 13.6 3.98688C13.6 3.5672 13.2337 3.2 12.815 3.2H7.21124C6.76637 3.2 6.40002 3.5672 6.40002 3.98688C6.40002 4.4328 6.76637 4.8 7.21124 4.8ZM3.21761 4.8H4.00882C4.43081 4.8 4.80002 4.4328 4.80002 3.98688C4.80002 3.5672 4.43081 3.2 4.00882 3.2H3.21761C2.76924 3.2 2.40002 3.5672 2.40002 3.98688C2.40002 4.4328 2.76924 4.8 3.21761 4.8Z" fill="#1A1C1F"/>
</g>
<defs>
<clipPath id="clip0_185_1366">
<rect width="16" height="16" fill="white"/>
</clipPath>
</defs>
</svg>

<svg xmlns="http://www.w3.org/2000/svg" width="16" height="16" fill="none"><g clip-path="url(#a)"><path fill="#1A1C1F" fill-rule="evenodd" d="M7.211 12.8h5.604c.419 0 .785-.367.785-.813a.806.806 0 0 0-.785-.787H7.211c-.445 0-.811.367-.811.787 0 .446.366.813.811.813m-3.993 0h.79c.423 0 .792-.367.792-.813 0-.42-.37-.787-.791-.787h-.791c-.449 0-.818.367-.818.787 0 .446.37.813.818.813m3.993-4h5.604A.804.804 0 0 0 13.6 8c0-.439-.366-.8-.785-.8H7.211A.81.81 0 0 0 6.4 8c0 .439.366.8.811.8m-3.993 0h.79A.81.81 0 0 0 4.8 8c0-.439-.37-.8-.791-.8h-.791A.813.813 0 0 0 2.4 8c0 .439.37.8.818.8m3.993-4h5.604c.419 0 .785-.367.785-.813a.806.806 0 0 0-.785-.787H7.211c-.445 0-.811.367-.811.787 0 .446.366.813.811.813m-3.993 0h.79c.423 0 .792-.367.792-.813 0-.42-.37-.787-.791-.787h-.791c-.449 0-.818.367-.818.787 0 .446.37.813.818.813" clip-rule="evenodd"/></g><defs><clipPath id="a"><path fill="#fff" d="M0 0h16v16H0z"/></clipPath></defs></svg>
